X:0
T:Dawlish Breach
C:Jackie Tolliday-Bailey
M:4/4
L:1/8
K:Dm
Q:1/4=154
%%landscape
%%transpose 2
"Dm" A2 AB "Dm/C♯"A2 AB | "Dm/C"AG FG "G/B"A4 | \
"B♭"d2 A2 "B♭G"A2 A2 | "A7/A"GF EF "A7/E"GA BG |
"Dm"A2 AB "Dm/C♯"A2 AB | "Dm/C"AG FG "G/B"A4 | \
"B♭"d2 A2 "A"GF EF | "Dm"D8 ||
"Dm"d2 de fe d2 | "Am"c2 cd cB A2 | "Dm"d2 de fe d2 | "Am"c2 cd c4 |
"Dm"d2 de fe d2 | "Am"c2 cd cB F       2 | "B♭"B2 AG "C"FE DC | "Dm"D8 |]
